www/assets/images/test_icons/flags/LR.svg

<svg fill="none" height="15" viewBox="0 0 21 15" width="21" xmlns="http://www.w3.org/2000/svg" xmlns:xlink="http://www.w3.org/1999/xlink"><mask id="a" height="15" maskUnits="userSpaceOnUse" width="21" x="0" y="0"><path d="m19 0h-17c-1.10457 0-2 .89543-2 2v11c0 1.1046.89543 2 2 2h17c1.1046 0 2-.8954 2-2v-11c0-1.10457-.8954-2-2-2z" fill="#fff"/></mask><g mask="url(#a)"><path d="m19 0h-17c-1.10457 0-2 .89543-2 2v11c0 1.1046.89543 2 2 2h17c1.1046 0 2-.8954 2-2v-11c0-1.10457-.8954-2-2-2z" fill="#fff"/><path clip-rule="evenodd" d="m7 0h14v1h-14zm0 2h14v1h-14zm0 2h14v1h-14zm0 2h14v1h-14zm-7 2h21v1h-21zm0 2h21v1h-21zm0 2h21v1h-21z" fill="#c1012b" fill-rule="evenodd"/><path d="m21 14h-21v1h21z" fill="#c1012b"/><path clip-rule="evenodd" d="m0 0h7v7h-7z" fill="#00256a" fill-rule="evenodd"/><path clip-rule="evenodd" d="m3.44 4.897-1.508.793.288-1.68-1.22-1.187 1.686-.245.754-1.528.754 1.527 1.686.245-1.22 1.19.288 1.678" fill="#fff" fill-rule="evenodd"/><path d="m19 .5h-17c-.82843 0-1.5.67157-1.5 1.5v11c0 .8284.67157 1.5 1.5 1.5h17c.8284 0 1.5-.6716 1.5-1.5v-11c0-.82843-.6716-1.5-1.5-1.5z" stroke="#000" stroke-opacity=".1"/></g></svg>

<svg width="21" height="15" viewBox="0 0 21 15" fill="none" xmlns="http://www.w3.org/2000/svg">
<mask id="mask0_3_108" style="mask-type:alpha" maskUnits="userSpaceOnUse" x="0" y="0" width="21" height="15">
<path d="M19 0H2C0.89543 0 0 0.89543 0 2V13C0 14.1046 0.89543 15 2 15H19C20.1046 15 21 14.1046 21 13V2C21 0.89543 20.1046 0 19 0Z" fill="white"/>
</mask>
<g mask="url(#mask0_3_108)">
<path d="M19 0H2C0.89543 0 0 0.89543 0 2V13C0 14.1046 0.89543 15 2 15H19C20.1046 15 21 14.1046 21 13V2C21 0.89543 20.1046 0 19 0Z" fill="white"/>
<path fill-rule="evenodd" clip-rule="evenodd" d="M7 0H21V1H7V0ZM7 2H21V3H7V2ZM7 4H21V5H7V4ZM7 6H21V7H7V6ZM0 8H21V9H0V8ZM0 10H21V11H0V10ZM0 12H21V13H0V12Z" fill="#C1012B"/>
<path d="M21 14H0V15H21V14Z" fill="#C1012B"/>
<path fill-rule="evenodd" clip-rule="evenodd" d="M0 0H7V7H0V0Z" fill="#00256A"/>
<path fill-rule="evenodd" clip-rule="evenodd" d="M3.44 4.897L1.932 5.69L2.22 4.01L1 2.823L2.686 2.578L3.44 1.05L4.194 2.577L5.88 2.822L4.66 4.012L4.948 5.69" fill="white"/>
<path d="M19 0.5H2C1.17157 0.5 0.5 1.17157 0.5 2V13C0.5 13.8284 1.17157 14.5 2 14.5H19C19.8284 14.5 20.5 13.8284 20.5 13V2C20.5 1.17157 19.8284 0.5 19 0.5Z" stroke="black" stroke-opacity="0.1"/>
</g>
</svg>
